X: 188
T: SLIDE: Seán Dan Neil
T: Barrack Hill
C: C: Trad.; S: Brendan Begley
C: Set Leaders: Anton, Sophie
Z: Anton Zille ed.; Bregolas at The Session
N: https://thesession.org/members/26966/sets/73135
R: Slide
M: 12/8
L: 1/8
Q: 3/8=130
K: Edor
|:B2E EDE B2A F2A|B2E EDE D2E F2A|
B2E EDE B2A F2A|B2A d2F E3 E3:||
|:B2A B2c d2d dcB|ABA A2d e3 e2d|
B2 A B2c dfe dcB|A2F D2F E3 E3:||

